images/fingerprint.svg

<svg height="18" viewBox="0 0 24 24" width="18" xmlns="http://www.w3.org/2000/svg"><path d="M11.83 1.73c-3.4.06-5.6 1.59-5.6 1.59-.28.18-.35.59-.16.87.2.31.59.36.89.15 0 0 4.31-3.19 10.5.04.29.17.68.07.85-.23.19-.3.06-.68-.28-.87-1.67-.88-3.25-1.32-4.67-1.48-.53-.06-1.04-.08-1.53-.07m.39 2.61c-5.96-.08-8.81 4.71-8.81 4.71-.19.29-.11.67.17.86.29.19.68.09.92-.23 0 0 2.42-4.18 7.7-4.09 5.3.07 7.62 4.06 7.62 4.06.18.29.56.39.86.22.32-.18.39-.56.22-.87 0 0-2.75-4.58-8.68-4.66m-.72 2.48c-1.68.12-3.29.73-4.5 1.74C4.62 10.53 3.1 14.14 4.77 19c.11.33.47.5.8.39.32-.11.5-.47.38-.79-1.54-4.47-.17-7.4 1.85-9.1 1.97-1.61 5.45-2 8.04-.4 1.27.8 2.26 2.18 2.76 3.54.51 1.36.48 2.68.07 3.3-.42.65-1.27.89-2.02.7-.75-.19-1.36-.73-1.39-1.87-.03-1.71-1.37-2.77-2.76-2.93-1.34-.16-2.89.56-3.29 2.16-.76 2.92 1.15 7.07 5.57 8.45.33.1.68-.08.79-.41.1-.33-.07-.69-.42-.79-3.83-1.19-5.28-4.82-4.73-6.96.24-.96 1.08-1.29 1.96-1.21.87.1 1.62.62 1.62 1.71.05 1.64 1.12 2.75 2.34 3.06 1.22.31 2.63-.08 3.38-1.23.78-1.17.65-2.82.06-4.41-.6-1.6-1.71-3.18-3.28-4.17a8.34 8.34 0 0 0-5-1.22m.36 2.43v.01c-1.78.06-3.56.98-4.58 2.92-1.32 2.49-.72 5.03.16 6.86.89 1.84 2.1 3.06 2.1 3.06.24.25.63.25.88.01s.25-.61.01-.88c0 0-1.07-1.1-1.86-2.73s-1.27-3.69-.19-5.73c1.12-2.1 3.12-2.61 4.88-2.1 1.78.52 3.27 2.07 3.24 4.36-.04.35.21.65.56.67.34.03.64-.23.67-.64.06-2.86-1.86-4.93-4.12-5.59a5.76 5.76 0 0 0-1.75-.22m.22 5c-.35.01-.62.3-.61.64 0 0 .03 1.48.84 2.91.84 1.43 2.62 2.79 5.72 2.5.34-.02.61-.3.59-.66-.02-.35-.32-.61-.71-.58-2.72.25-3.87-.78-4.52-1.89-.65-1.1-.67-2.29-.67-2.29a.63.63 0 0 0-.64-.63z"/></svg>

<svg height="18" viewBox="0 0 24 24" width="18" xmlns="http://www.w3.org/2000/svg"><path fill="#000000" d="M11.83,1.73C8.43,1.79 6.23,3.32 6.23,3.32C5.95,3.5 5.88,3.91 6.07,4.19C6.27,4.5 6.66,4.55 6.96,4.34C6.96,4.34 11.27,1.15 17.46,4.38C17.75,4.55 18.14,4.45 18.31,4.15C18.5,3.85 18.37,3.47 18.03,3.28C16.36,2.4 14.78,1.96 13.36,1.8C12.83,1.74 12.32,1.72 11.83,1.73M12.22,4.34C6.26,4.26 3.41,9.05 3.41,9.05C3.22,9.34 3.3,9.72 3.58,9.91C3.87,10.1 4.26,10 4.5,9.68C4.5,9.68 6.92,5.5 12.2,5.59C17.5,5.66 19.82,9.65 19.82,9.65C20,9.94 20.38,10.04 20.68,9.87C21,9.69 21.07,9.31 20.9,9C20.9,9 18.15,4.42 12.22,4.34M11.5,6.82C9.82,6.94 8.21,7.55 7,8.56C4.62,10.53 3.1,14.14 4.77,19C4.88,19.33 5.24,19.5 5.57,19.39C5.89,19.28 6.07,18.92 5.95,18.6V18.6C4.41,14.13 5.78,11.2 7.8,9.5C9.77,7.89 13.25,7.5 15.84,9.1C17.11,9.9 18.1,11.28 18.6,12.64C19.11,14 19.08,15.32 18.67,15.94C18.25,16.59 17.4,16.83 16.65,16.64C15.9,16.45 15.29,15.91 15.26,14.77C15.23,13.06 13.89,12 12.5,11.84C11.16,11.68 9.61,12.4 9.21,14C8.45,16.92 10.36,21.07 14.78,22.45C15.11,22.55 15.46,22.37 15.57,22.04C15.67,21.71 15.5,21.35 15.15,21.25C11.32,20.06 9.87,16.43 10.42,14.29C10.66,13.33 11.5,13 12.38,13.08C13.25,13.18 14,13.7 14,14.79C14.05,16.43 15.12,17.54 16.34,17.85C17.56,18.16 18.97,17.77 19.72,16.62C20.5,15.45 20.37,13.8 19.78,12.21C19.18,10.61 18.07,9.03 16.5,8.04C14.96,7.08 13.19,6.7 11.5,6.82M11.86,9.25V9.26C10.08,9.32 8.3,10.24 7.28,12.18C5.96,14.67 6.56,17.21 7.44,19.04C8.33,20.88 9.54,22.1 9.54,22.1C9.78,22.35 10.17,22.35 10.42,22.11C10.67,21.87 10.67,21.5 10.43,21.23C10.43,21.23 9.36,20.13 8.57,18.5C7.78,16.87 7.3,14.81 8.38,12.77C9.5,10.67 11.5,10.16 13.26,10.67C15.04,11.19 16.53,12.74 16.5,15.03C16.46,15.38 16.71,15.68 17.06,15.7C17.4,15.73 17.7,15.47 17.73,15.06C17.79,12.2 15.87,10.13 13.61,9.47C13.04,9.31 12.45,9.23 11.86,9.25M12.08,14.25C11.73,14.26 11.46,14.55 11.47,14.89C11.47,14.89 11.5,16.37 12.31,17.8C13.15,19.23 14.93,20.59 18.03,20.3C18.37,20.28 18.64,20 18.62,19.64C18.6,19.29 18.3,19.03 17.91,19.06C15.19,19.31 14.04,18.28 13.39,17.17C12.74,16.07 12.72,14.88 12.72,14.88C12.72,14.53 12.44,14.25 12.08,14.25Z" /></svg>
